icons/police-car-line.svg

<svg xmlns="http://www.w3.org/2000/svg" width="24" height="24" fill="none"><g clip-path="url(#a)"><g><path fill="#121212" d="M4 13V18H20V13H4ZM5.618 11H18.382C18.5524 10.9999 18.7199 10.9563 18.8687 10.8733C19.0175 10.7902 19.1426 10.6706 19.2322 10.5256C19.3218 10.3806 19.3728 10.2152 19.3805 10.045C19.3881 9.87477 19.3522 9.70542 19.276 9.553L18 7H6L4.724 9.553C4.64784 9.70542 4.61188 9.87477 4.61955 10.045C4.62721 10.2152 4.67825 10.3806 4.76781 10.5256C4.85736 10.6706 4.98248 10.7902 5.13127 10.8733C5.28007 10.9563 5.44761 10.9999 5.618 11ZM22 13.5V21C22 21.2652 21.8946 21.5196 21.7071 21.7071C21.5196 21.8946 21.2652 22 21 22H20C19.7348 22 19.4804 21.8946 19.2929 21.7071C19.1054 21.5196 19 21.2652 19 21V20H5V21C5 21.2652 4.89464 21.5196 4.70711 21.7071C4.51957 21.8946 4.26522 22 4 22H3C2.73478 22 2.48043 21.8946 2.29289 21.7071C2.10536 21.5196 2 21.2652 2 21V13.5L0.757 13.19C0.540753 13.1358 0.348809 13.011 0.211655 12.8352C0.0745022 12.6595 5.86043e-06 12.4429 0 12.22L0 11.5C0 11.3674 0.0526784 11.2402 0.146447 11.1464C0.240215 11.0527 0.367392 11 0.5 11H2L4.447 6.106C4.61313 5.77353 4.86862 5.49394 5.1848 5.29858C5.50098 5.10322 5.86534 4.99983 6.237 5H8V3H11V5H13V3H16V5H17.764C18.1355 5.00001 18.4996 5.10349 18.8156 5.29884C19.1316 5.49419 19.3869 5.77369 19.553 6.106L22 11H23.5C23.6326 11 23.7598 11.0527 23.8536 11.1464C23.9473 11.2402 24 11.3674 24 11.5V12.22C24 12.4429 23.9255 12.6595 23.7883 12.8352C23.6512 13.011 23.4592 13.1358 23.243 13.19L22 13.5ZM5 14C7.317 14 8.879 14.755 9.686 16.264C9.72679 16.3402 9.74714 16.4257 9.74506 16.5121C9.74297 16.5985 9.71852 16.6829 9.6741 16.757C9.62968 16.8311 9.5668 16.8925 9.49159 16.9351C9.41639 16.9777 9.33143 17 9.245 17H6C5.73478 17 5.48043 16.8946 5.29289 16.7071C5.10536 16.5196 5 16.2652 5 16V14ZM19 14V16C19 16.2652 18.8946 16.5196 18.7071 16.7071C18.5196 16.8946 18.2652 17 18 17H14.755C14.6687 16.9999 14.5838 16.9774 14.5088 16.9347C14.4337 16.892 14.3709 16.8307 14.3266 16.7566C14.2823 16.6825 14.258 16.5981 14.2559 16.5118C14.2539 16.4255 14.2742 16.3401 14.315 16.264C15.12 14.754 16.682 14 19 14Z"/></g></g><defs><clipPath id="a"><rect width="24" height="24" fill="white"/></clipPath></defs></svg>

<svg width="24" height="24" fill="none" xmlns="http://www.w3.org/2000/svg"><g clip-path="url(#a)"><path d="M4 13v5h16v-5H4Zm1.618-2h12.764a1 1 0 0 0 .894-1.447L18 7H6L4.724 9.553A1 1 0 0 0 5.618 11ZM22 13.5V21a1 1 0 0 1-1 1h-1a1 1 0 0 1-1-1v-1H5v1a1 1 0 0 1-1 1H3a1 1 0 0 1-1-1v-7.5l-1.243-.31A1 1 0 0 1 0 12.22v-.72a.5.5 0 0 1 .5-.5H2l2.447-4.894A2 2 0 0 1 6.237 5H8V3h3v2h2V3h3v2h1.764a2 2 0 0 1 1.789 1.106L22 11h1.5a.5.5 0 0 1 .5.5v.72a1 1 0 0 1-.757.97L22 13.5ZM5 14c2.317 0 3.879.755 4.686 2.264a.5.5 0 0 1-.441.736H6a1 1 0 0 1-1-1v-2Zm14 0v2a1 1 0 0 1-1 1h-3.245a.499.499 0 0 1-.44-.736C15.12 14.754 16.682 14 19 14Z" /></g><defs><clipPath id="a"><path fill="#fff" d="M0 0h24v24H0z"/></clipPath></defs></svg>
